packages/ffe-icons/icons/filled/sm/sports_golf.svg

<svg xmlns="http://www.w3.org/2000/svg" height="20" viewBox="0 -960 960 960" width="20"><path d="M480.295-356.001q-101.833 0-173.063-70.936-71.231-70.935-71.231-172.768t70.936-173.063q70.935-71.231 172.768-71.231t173.063 70.936q71.231 70.935 71.231 172.768t-70.936 173.063q-70.935 71.231-172.768 71.231ZM395.789-588Q411-588 421.5-598.289q10.5-10.29 10.5-25.5Q432-639 421.711-649.5q-10.29-10.5-25.5-10.5Q381-660 370.5-649.711q-10.5 10.29-10.5 25.5Q360-609 370.289-598.5q10.29 10.5 25.5 10.5Zm168 0Q579-588 589.5-598.289q10.5-10.29 10.5-25.5Q600-639 589.711-649.5q-10.29-10.5-25.5-10.5Q549-660 538.5-649.711q-10.5 10.29-10.5 25.5Q528-609 538.289-598.5q10.29 10.5 25.5 10.5Zm-84-96Q495-684 505.5-694.289q10.5-10.29 10.5-25.5Q516-735 505.711-745.5q-10.29-10.5-25.5-10.5Q465-756 454.5-745.711q-10.5 10.29-10.5 25.5Q444-705 454.289-694.5q10.29 10.5 25.5 10.5Zm-25.788 565.691v-24q0-34.316-23.843-58.159Q406.316-224.31 372-224.31h-42.615q-11.05 0-18.524-7.418-7.475-7.418-7.475-18.384 0-10.966 7.475-18.581 7.474-7.616 18.524-7.616h301.23q11.05 0 18.524 7.419 7.475 7.418 7.475 18.384 0 10.966-7.475 18.581-7.474 7.615-18.524 7.615H588q-34.316 0-58.158 23.842-23.843 23.843-23.843 58.159v24h-51.998Z"/></svg>

<svg xmlns="http://www.w3.org/2000/svg" height="20" viewBox="0 -960 960 960" width="20"><path d="M480.3-356q-101.84 0-173.07-70.94Q236-497.87 236-599.7q0-101.84 70.94-173.07Q377.87-844 479.7-844q101.84 0 173.07 70.94Q724-702.13 724-600.3q0 101.84-70.94 173.07Q582.13-356 480.3-356Zm-84.51-232q15.21 0 25.71-10.29t10.5-25.5q0-15.21-10.29-25.71t-25.5-10.5q-15.21 0-25.71 10.29t-10.5 25.5q0 15.21 10.29 25.71t25.5 10.5Zm168 0q15.21 0 25.71-10.29t10.5-25.5q0-15.21-10.29-25.71t-25.5-10.5q-15.21 0-25.71 10.29t-10.5 25.5q0 15.21 10.29 25.71t25.5 10.5Zm-84-96q15.21 0 25.71-10.29t10.5-25.5q0-15.21-10.29-25.71t-25.5-10.5q-15.21 0-25.71 10.29t-10.5 25.5q0 15.21 10.29 25.71t25.5 10.5ZM454-118.31v-24q0-34.32-23.84-58.16-23.84-23.84-58.16-23.84h-42.61q-11.05 0-18.53-7.42-7.47-7.42-7.47-18.38 0-10.97 7.47-18.58 7.48-7.62 18.53-7.62h301.22q11.05 0 18.53 7.42 7.47 7.42 7.47 18.38 0 10.97-7.47 18.58-7.48 7.62-18.53 7.62H588q-34.32 0-58.16 23.84Q506-176.63 506-142.31v24h-52Z"/></svg>
